icons/desktop/15/pin-fill-mask-only-15.svg

<svg width="15" height="15" viewBox="0 0 15 15" fill="none" xmlns="http://www.w3.org/2000/svg">
<g clip-path="url(#clip0_265_3416)">
<path d="M6.82638 0.00199997C6.40938 0.00199997 6.00838 0.13 5.66838 0.371C4.64838 1.099 3.68437 1.915 2.79937 2.799C1.91337 3.684 1.09637 4.649 0.371375 5.668C0.0613748 6.103 -0.0606252 6.633 0.0283748 7.16C0.117375 7.687 0.406375 8.147 0.841375 8.457C1.17937 8.699 1.58037 8.827 1.99937 8.827C2.39337 8.827 2.77337 8.711 3.09437 8.501L3.71438 9.121L3.89537 11.185C4.01837 12.593 5.21537 13.696 6.62037 13.696C7.15837 13.696 7.66937 13.527 8.09737 13.207C8.49637 12.908 8.91838 12.567 9.35738 12.186L11.5854 14.414C11.9634 14.792 12.4654 15 12.9994 15C13.5334 15 14.0354 14.792 14.4134 14.414C15.1934 13.634 15.1934 12.365 14.4134 11.586L12.1884 9.36C12.4994 9.001 12.8384 8.588 13.1854 8.126C13.7454 7.38 13.8434 6.407 13.4484 5.522C13.0384 4.604 12.1714 3.979 11.1864 3.893L9.12237 3.712L8.50237 3.092C8.65137 2.864 8.75238 2.606 8.79838 2.33C8.88638 1.802 8.76437 1.272 8.45337 0.837C8.07937 0.313 7.47037 0 6.82437 0L6.82638 0.00199997Z" fill="white"/>
</g>
<defs>
<clipPath id="clip0_265_3416">
<rect width="15" height="15" fill="white"/>
</clipPath>
</defs>
</svg>

<!-- This Source Code Form is subject to the terms of the Mozilla Public
   - License, v. 2.0. If a copy of the MPL was not distributed with this
   - file, You can obtain one at http://mozilla.org/MPL/2.0/. -->
<svg xmlns="http://www.w3.org/2000/svg" width="15" height="15" fill="context-fill" fill-opacity="context-fill-opacity" viewBox="0 0 15 15">
    <path d="M6.826.002c-.417 0-.818.128-1.158.369A23 23 0 0 0 2.8 2.799 22.5 22.5 0 0 0 .371 5.668c-.31.435-.432.965-.343 1.492.09.527.378.987.813 1.297a2 2 0 0 0 2.253.044l.62.62.181 2.064c.123 1.408 1.32 2.511 2.725 2.511.538 0 1.05-.169 1.477-.489q.6-.449 1.26-1.021l2.228 2.228c.378.378.88.586 1.414.586s1.036-.208 1.414-.586c.78-.78.78-2.049 0-2.828L12.188 9.36c.311-.359.65-.772.997-1.234.56-.746.658-1.719.263-2.604a2.75 2.75 0 0 0-2.262-1.629l-2.064-.181-.62-.62c.15-.228.25-.486.296-.762A2 2 0 0 0 8.453.837 2 2 0 0 0 6.824 0z" />
</svg>
